X: 1243
T: A Beautiful Golden Picture
C:Charles Ridgewell (?-1916) & Will Godwin
B: australian traditional tunes wiki
M:3/4
L:1/8
R: Waltz
Q: 1/4=100
K:D
V:1 
fg||"D"a2f2b2|a2f2d2|A2d4-|d4fg|a2f2b2|a2f2d2|"G"g6-|g4ef|
"A7"g2f2a2|g2e2c2|g2g4-|g4aa|a2g2c2|f4e2|"D"d6-|d4Ad||
"D"f2f2f2|f2b2a2|f2f4-|f4f2|"G"g2g2g2|d4e2|"D"f6-|f4a2|
"E7"^g2g2g2|"D"f4e2|"A7"a2a4-|a4ce|e2e2e2|"D"f4f2|"A7"g6-|g2A2d2||
"D"f4f2|f4ef|a6-|a4fg|a3gf2|a3gf2|"A7"g6-|g4gf|
"A7"e3ee2|e3ee2|aee4-|e4a2|a4g2|e4=f2|"D"f6-|f4Ad||
"D"f4f2|f3e fg|a6|z4fg|a3gf2|a3gf2|"A7"g6|z4ef|
"A7"g3g fe|g2f2e2|gcc4-|c4a2|a2b2a2|g2f2e2|"D"d6-|d4||
% abcbook-tune_id 6342d53a38ed2de0af438025


% abcbook-boost 0
% abcbook-tablature 
% abcbook-transpose 
% abcbook-lastupdated 1665324355705
% abcbook-soundfonts 
% abcbook-repeats 1
% NFF Book 2014

